X: 29176
T: New Brig Of Methlick, The
R: strathspey
M: 4/4
K: Fmajor
B|A>F C<F A,>F C<F|B,>F A,>F G<G, G,>B|A>F C<F A,>f e<f|d<B c>B A<FF:|
e|f>c A>B c>f e<g|f>c A>f g<G G>g|f>c A>B c>f e<f|
d<B c>B A<F F>e|f>c A>B c>f e<g|f>c A>f g<G G>e|(3fga (3gfe (3fed (3cBA|(3BAB (3GAB (3cde (3fcB:|

